frontend/public/bn-logo-gold.svg

<?xml version="1.0" encoding="UTF-8"?>
<svg id="Layer_1" xmlns="http://www.w3.org/2000/svg" xmlns:xlink="http://www.w3.org/1999/xlink" version="1.1" viewBox="0 0 360 360">
  <!-- Generator: Adobe Illustrator 29.1.0, SVG Export Plug-In . SVG Version: 2.1.0 Build 142)  -->
  <defs>
    <style>
      .st0 {
        fill: url(#linear-gradient2);
      }

      .st1 {
        fill: url(#linear-gradient1);
      }

      .st2 {
        fill: url(#linear-gradient3);
      }

      .st3 {
        fill: url(#linear-gradient4);
      }

      .st4 {
        fill: url(#linear-gradient);
      }
    </style>
    <linearGradient id="linear-gradient" x1="52.88" y1="180" x2="79.15" y2="180" gradientUnits="userSpaceOnUse">
      <stop offset="0" stop-color="#c08b2c"/>
      <stop offset="1" stop-color="#eccc80"/>
    </linearGradient>
    <linearGradient id="linear-gradient1" x1="94.36" y1="261.98" x2="255.11" y2="261.98" xlink:href="#linear-gradient"/>
    <linearGradient id="linear-gradient2" x1="94.36" y1="98.02" x2="255.11" y2="98.02" xlink:href="#linear-gradient"/>
    <linearGradient id="linear-gradient3" x1="210" y1="178.67" x2="305.05" y2="178.67" xlink:href="#linear-gradient"/>
    <linearGradient id="linear-gradient4" x1="205.9" y1="178.67" x2="309.15" y2="178.67" xlink:href="#linear-gradient"/>
  </defs>
  <rect class="st4" x="52.88" y="43.37" width="26.27" height="273.27"/>
  <g>
    <polygon class="st1" points="255.11 248.32 190 248.32 190 207.33 94.36 207.33 94.36 234.65 162.68 234.65 162.68 289.31 94.36 289.31 94.36 316.63 190 316.63 190 275.64 255.11 275.64 255.11 248.32"/>
    <polygon class="st0" points="190 111.68 255.11 111.68 255.11 84.36 190 84.36 190 43.37 94.36 43.37 94.36 70.69 162.68 70.69 162.68 125.35 94.36 125.35 94.36 152.67 190 152.67 190 111.68"/>
  </g>
  <g>
    <path class="st2" d="M210,132.04h12.81l67.12,70.97v-70.97h15.12v93.26h-12.81l-67.12-70.97v70.97h-15.12v-93.26Z"/>
    <path class="st3" d="M309.15,229.4h-18.67l-61.26-64.77v64.77h-23.31v-101.45h18.67l61.26,64.77v-64.77h23.31v101.45ZM294.01,221.2h6.95v-85.06h-6.92v77.17l-72.99-77.17h-6.95v85.06h6.92v-77.17l72.99,77.17Z"/>
  </g>
</svg>

<?xml version="1.0" encoding="UTF-8" standalone="no"?>
<svg
   id="Layer_1"
   version="1.1"
   viewBox="0 0 256.26999 273.26999"
   sodipodi:docname="bn-logo-gold.svg"
   width="256.26999"
   height="273.26999"
   inkscape:version="1.4 (86a8ad7, 2024-10-11)"
   xmlns:inkscape="http://www.inkscape.org/namespaces/inkscape"
   xmlns:sodipodi="http://sodipodi.sourceforge.net/DTD/sodipodi-0.dtd"
   xmlns:xlink="http://www.w3.org/1999/xlink"
   xmlns="http://www.w3.org/2000/svg"
   xmlns:svg="http://www.w3.org/2000/svg">
  <sodipodi:namedview
     id="namedview4"
     pagecolor="#ffffff"
     bordercolor="#000000"
     borderopacity="0.25"
     inkscape:showpageshadow="2"
     inkscape:pageopacity="0.0"
     inkscape:pagecheckerboard="0"
     inkscape:deskcolor="#d1d1d1"
     inkscape:zoom="2.2416667"
     inkscape:cx="126.9145"
     inkscape:cy="136.72862"
     inkscape:window-width="1920"
     inkscape:window-height="1009"
     inkscape:window-x="1912"
     inkscape:window-y="-8"
     inkscape:window-maximized="1"
     inkscape:current-layer="Layer_1" />
  <!-- Generator: Adobe Illustrator 29.1.0, SVG Export Plug-In . SVG Version: 2.1.0 Build 142)  -->
  <defs
     id="defs2">
    <style
       id="style1">
      .st0 {
        fill: url(#linear-gradient2);
      }

      .st1 {
        fill: url(#linear-gradient1);
      }

      .st2 {
        fill: url(#linear-gradient3);
      }

      .st3 {
        fill: url(#linear-gradient4);
      }

      .st4 {
        fill: url(#linear-gradient);
      }
    </style>
    <linearGradient
       id="linear-gradient"
       x1="52.880001"
       y1="180"
       x2="79.150002"
       y2="180"
       gradientUnits="userSpaceOnUse">
      <stop
         offset="0"
         stop-color="#c08b2c"
         id="stop1" />
      <stop
         offset="1"
         stop-color="#eccc80"
         id="stop2" />
    </linearGradient>
    <linearGradient
       id="linear-gradient1"
       x1="94.360001"
       y1="261.98001"
       x2="255.11"
       y2="261.98001"
       xlink:href="#linear-gradient" />
    <linearGradient
       id="linear-gradient2"
       x1="94.360001"
       y1="98.019997"
       x2="255.11"
       y2="98.019997"
       xlink:href="#linear-gradient" />
    <linearGradient
       id="linear-gradient3"
       x1="210"
       y1="178.67"
       x2="305.04999"
       y2="178.67"
       xlink:href="#linear-gradient" />
    <linearGradient
       id="linear-gradient4"
       x1="205.89999"
       y1="178.67"
       x2="309.14999"
       y2="178.67"
       xlink:href="#linear-gradient" />
    <linearGradient
       inkscape:collect="always"
       xlink:href="#linear-gradient"
       id="linearGradient4"
       gradientUnits="userSpaceOnUse"
       x1="52.880001"
       y1="180"
       x2="79.150002"
       y2="180"
       gradientTransform="translate(-52.880001,-43.369999)" />
  </defs>
  <rect
     class="st4"
     x="0"
     y="0"
     width="26.27"
     height="273.26999"
     id="rect2"
     style="fill:url(#linearGradient4)" />
  <g
     id="g3"
     transform="translate(-52.880001,-43.369999)">
    <polygon
       class="st1"
       points="190,207.33 94.36,207.33 94.36,234.65 162.68,234.65 162.68,289.31 94.36,289.31 94.36,316.63 190,316.63 190,275.64 255.11,275.64 255.11,248.32 190,248.32 "
       id="polygon2"
       style="fill:url(#linear-gradient1)" />
    <polygon
       class="st0"
       points="255.11,84.36 190,84.36 190,43.37 94.36,43.37 94.36,70.69 162.68,70.69 162.68,125.35 94.36,125.35 94.36,152.67 190,152.67 190,111.68 255.11,111.68 "
       id="polygon3"
       style="fill:url(#linear-gradient2)" />
  </g>
  <g
     id="g4"
     transform="translate(-52.880001,-43.369999)">
    <path
       class="st2"
       d="m 210,132.04 h 12.81 l 67.12,70.97 v -70.97 h 15.12 V 225.3 H 292.24 L 225.12,154.33 V 225.3 H 210 Z"
       id="path3"
       style="fill:url(#linear-gradient3)" />
    <path
       class="st3"
       d="M 309.15,229.4 H 290.48 L 229.22,164.63 V 229.4 H 205.91 V 127.95 h 18.67 l 61.26,64.77 v -64.77 h 23.31 z m -15.14,-8.2 h 6.95 v -85.06 h -6.92 v 77.17 l -72.99,-77.17 h -6.95 v 85.06 h 6.92 v -77.17 z"
       id="path4"
       style="fill:url(#linear-gradient4)" />
  </g>
</svg>
